X:1
T:Vigil, 76.76 D
T:Vigil, 76.76 D
T:Swedish Folk Melody
T:Public Domain Courtesy of the Cyber Hymnal™
C:Swedish Folk Melody
Z:Public Domain
Z:Courtesy of the Cyber Hymnal™
%%score ( 1 2 ) ( 3 4 )
L:1/8
Q:1/4=117
M:4/4
K:A
V:1 treble 
V:2 treble 
V:3 bass 
V:4 bass 
V:1
 [CE]2 | [CA]2 [Ec]2 [CE]2 [CE]2 | [A,D]4 [A,C]2 [CE]2 | [DF]2 [FB]2 [EA]2 [DG]2 | [CA]6 [CE]2 | %5
 [CA]2 [Ec]2 [CE]2 [CE]2 | [A,D]4 [A,C]2 [CE]2 | [DF]2 [FB]2 [EA]2 [DG]2 | [CA]6 ([CA][DB]) | %9
 [Ec]2 [Ec]2 [Ee]2 [Ec]2 | [Ec]4 [EB]2 [EA]2 | [EG]2 E2 [EF]2 [^DF]2 | E6 [CE]2 | %13
 [CA]2 [Ec]2 [CE]2 [CE]2 | [A,D]4 [A,C]2 [CE]2 | [DF]2 [FB]2 [EA]2 [DG]2 | [CA]6 |] %17
V:2
 x2 | x8 | x8 | x8 | x8 | x8 | x8 | x8 | x8 | x8 | x8 | x2 E2 x4 | E6 x2 | x8 | x8 | x8 | x6 |] %17
V:3
 A,2 | [A,,A,]2 [A,,A,]2 [A,,A,]2 [A,,=G,]2 | [A,,F,]4 [A,,E,]2 [A,,A,]2 | %3
 [D,A,]2 [B,,D]2 [E,C]2 [E,B,]2 | [A,,A,]6 A,2 | [A,,A,]2 [A,,A,]2 [A,,A,]2 [A,,=G,]2 | %6
 [A,,F,]4 [A,,E,]2 [A,,A,]2 | [D,A,]2 [B,,D]2 [E,C]2 [E,B,]2 | [A,,A,]6 [A,,A,]2 | %9
 [A,,A,]2 [A,,A,]2 [C,A,]2 [A,,A,]2 | [E,A,]4 [E,G,]2 [E,C]2 | [E,B,]2 [G,B,]2 [A,C]2 B,2 | %12
 [E,G,]6 A,2 | [A,,A,]2 [A,,A,]2 [A,,A,]2 [A,,=G,]2 | [A,,F,]4 [A,,E,]2 [A,,A,]2 | %15
 [D,A,]2 [B,,D]2 [E,C]2 [E,B,]2 | [A,,A,]6 |] %17
V:4
 A,2 | x8 | x8 | x8 | x6 A,2 | x8 | x8 | x8 | x8 | x8 | x8 | x6 B,2 | x6 A,2 | x8 | x8 | x8 | x6 |] %17

